X: 1
T:An Dro
C:TUD
M:4/4
L:1/8
K:G
B2cB A2B2|G2A2 B2E2|B2cB A2B2|GFGA B4:|B2cB A2BB|
G2F2 E4|:FGAF B2 BA|G2FE F2E2|FGAF B2 BA|G2FG E4:|
